X:1
T:Keyboard Sonata G Major
T:Keyboard Sonata G Major
T:K. 328
T:Domenico Scarlatti (1685-1757)
C:Domenico Scarlatti (1685-1757)
%%score { ( 1 4 ) | ( 2 3 ) } { 5 | 6 }
L:1/8
Q:1/4=92
M:6/8
K:G
V:1 treble nm="Cembalo"
V:4 treble 
V:2 bass 
V:3 bass 
V:5 treble nm="Clav. II" snm="Clav. II"
V:6 bass 
V:1
"^Andante comodo" z6 | z6 | z6 | z6 | G3 FED | G3 FED | BAG FED | ^CA,D EDC | d3 BAG | d3 BAG | %10
 edc BAG | FDG AGF | G3"^Fl.o" Tbab | c'2 b Pa2 g | fga Pbab | c'2 b Pa2 g | a3"_Org." D3- | %17
 DB,D E3- | EFG A3- | AB^c d3- | def g3 | faf dfd | BdB GBG | FAD ED^C | D3"^Fl.o" fga | bd'b Pg3 | %26
 f3"_Org." FGA | BdB PG3 | F3"^Fl.o" aba | ad'a agf | e3"_Org." ABA | AdA AGF | E3 [DF][EG][FA] | %33
 [EG][DF][EG] [DF][^CE][DF] | [^CE]3"^Fl.o" ^cde | fga b^c'd' | ^c'ba gfe | fg[da] [eg][df][^ce] | %38
 d3"_Org." ^CDE | FGA B^cd | ^cBA GFE | FG[DA] [EG][DF][^CE] | D3"^Fl.o" agf | e2 f g2 f | %44
 e3"_Org." AGF | E2 F[Q:1/4=89]"^.5" G2[Q:1/4=84]"^.5" !breath!F[Q:1/4=87] |[Q:1/4=92] EFG A3- | %47
 AB^c d2 c | BAG FGE | D3"^Fl.o" [Aeg]3 | [df]3"_Org." [A,^CEG]3 | [A,DF]3"^Fl.o" [Aeg]3 | %52
 [Adf]3 [G^ce]3 | [FAd]3"_Org." [A,^CEG]3 | [A,DF]3 [G,^CE]3 | D6 :: A3 FED | A3 FED | B3 GFE | %59
 B3 GFE | cBA GFE | F3"^Fl.o" gfg | a2 g f2 e | f3"_Org." GFG | A2 G F2 E | PF3"^Fl.o" b3- | %66
 bab c'ba | b3"_Org." GAB | ^cde GFE | F3"^Fl.o" fef | gfe d^cd | P^c3"_Org." FEF | G^AB EDE | %73
 F3"^Fl.o" ^ab^c' | d'=c'b agf | g3 gab | ^c'ba gfe | f3"_Org." D3- | DEF G3 | EFG A3- | AB^c d3- | %81
 def g2 f | edc BAG | A3"^Fl.o" bab | c'2 b Pa2 g | a3"_Org." BAB | c2 B PA2 G | A3"^Fl.o" d'3 | %88
 Pbab d'3 |"^[    ]" Pbab d'c'b | a2 g agf | g3"_Org." G3 | EFG A3- | ABc d3- | dcB [Ac][GB][FA] | %95
 G3"^Fl.o" !arpeggio![dfac']3 | [gb]3"_Org." [DFAc]3 | [DGB]3"^Fl.o" !arpeggio![dfac']3 | %98
 [dgb]3 [cfa]3 | [Bdg]3"_Org." [DFAc]3 | [DGB]3 [CFA]3 | [B,DG]6 :| %102
V:2
 D3 B,A,G, | D3 B,A,G, | EDC B,A,G, | F,D,G, A,G,F, | G,B,G, D,3 | G,B,^C D3 | G,6- | %7
 G,2 F, G,2 A, | D,E,F, G,3 | D,E,F, G,3 | C6- | C2 B, C2 D | G,3[K:treble] gfg | afg cde | %14
 def gfg | afg cde | d3[K:bass] D,E,F, | G,3- G,E,G, | A,3- A,B,^C | D3- DEF | G3 E^CA, | D3 F,3 | %22
 G,3 G,,3 | A,,6 | D,,3[K:treble] def | g3 e^cA | d3[K:bass] D,E,F, | G,3 A,B,^C | %28
 D3[K:treble] fgf | f3- fed | A3 FGF | F3- FED | A,3[K:bass] D,3 | A,,3 D,3 | A,,3[K:treble] AB^c | %35
 def gab | agf ed^c | d2 F G2 A | D3[K:bass] A,B,^C | D6 | A,3- A,B,^C | D2 F, G,2 A, | %42
 D,3[K:treble] fed | ^cAd ecd | A3 FED | ^CA,D ECD |[K:bass] A,3- A,B,^C | D,3- D,E,F, | %48
 G,3 D2 ^C | D,3 A,3 | D3 A,,3 | D,,3 A,3 | D3 A,3 | D3 A,,3 | D,3 A,,3 | D,,6 :: A,,B,,^C, D,3 | %57
 A,,B,,^C, D,3 | B,,^C,^D, E,3 | B,,^C,^D, E,3 | A,6 | [B,,B,]3[K:treble] e^de | f^de ABc | %63
 B3 E^DE | F^DE A,B,C | B,3 Bc^d | efg agf | g3[K:bass] G,3 | A,3 A,,3 | D,3[K:treble] d^cd | %70
 ed^c B^AB | F3[K:bass] D,3 | E,3 G,3 | F,3[K:treble] f^g^a | b=a=g fed | e3 efg | agf ed^c | %77
 d3[K:bass] D,E,F, | G,3 E,F,G, | A,3 A,,B,,^C, | D,3- D,E,F, | G,3- G,A,B, | =CB,A, G,F,E, | %83
 D,3[K:treble] gfg | afg cde | d3 GFG | AFG CDE | D3 def | g3 def | g3 B3 | cde d3 | %91
 G3[K:bass] G,A,B, | C3 A,B,C | D3 D,E,F, | G,3 C,2 D, | G,,3 D3 | G3 D,,3 | G,,3 D3 | G3 D3 | %99
 G3 [D,,D,]3 | [G,,G,]3 [D,,D,]3 | G,,6 :| %102
V:3
 x6 | x6 | x6 | x6 | x6 | x6 | x6 | x6 | x6 | x6 | x6 | x6 | x3[K:treble] x3 | x6 | x6 | x6 | %16
 x3[K:bass] x3 | x6 | x6 | x6 | x6 | x6 | x6 | x6 | x3[K:treble] x3 | x6 | x3[K:bass] x3 | x6 | %28
 x3[K:treble] x3 | x6 | x6 | x6 | x3[K:bass] x3 | x6 | x3[K:treble] x3 | x6 | x6 | x6 | %38
 x3[K:bass] x3 | D,3 G,3 | x6 | x6 | x3[K:treble] x3 | x6 | x6 | x6 |[K:bass] x6 | x6 | x3 A,3 | %49
 x6 | x6 | x6 | x6 | x6 | x6 | x6 :: x6 | x6 | x6 | x6 | A,,3 C,3 | x3[K:treble] x3 | x6 | x6 | %64
 x6 | x6 | x6 | x3[K:bass] x3 | x6 | x3[K:treble] x3 | x6 | x3[K:bass] x3 | x6 | x3[K:treble] x3 | %74
 x6 | x6 | x6 | x3[K:bass] x3 | x6 | x6 | x6 | x6 | x6 | x3[K:treble] x3 | x6 | x6 | x6 | x6 | x6 | %89
 x6 | x6 | x3[K:bass] x3 | x6 | x6 | x6 | x6 | x6 | x6 | x6 | x6 | x6 | x6 :| %102
V:4
 x6 | x6 | x6 | x6 | x6 | x6 | x6 | x6 | x6 | x6 | x6 | x6 | x6 | x6 | x6 | x6 | x6 | x6 | x6 | %19
 x6 | x6 | x6 | x6 | x6 | x6 | x6 | x6 | x6 | x6 | x6 | x6 | x6 | x6 | x6 | x6 | x6 | x6 | x6 | %38
 x6 | x6 | x6 | x6 | x6 | x6 | x6 | x6 | x6 | x6 | x6 | x6 | x6 | x6 | x6 | x6 | x6 | x6 :: x6 | %57
 x6 | x6 | x6 | x6 | x6 | x6 | x6 | x6 | x6 | x6 | x6 | x6 | x6 | x6 | x6 | x6 | x6 | x6 | x6 | %76
 x6 | x6 | x6 | x6 | x6 | x6 | x6 | x6 | x6 | x6 | x6 | x6 | x6 | x6 | x6 | x3 B,CD | x3 CDE | %93
 F3- FGA | B3 x3 | x6 | x6 | x6 | x6 | x6 | x6 | x6 :| %102
V:5
 z6 | z6 | z6 | z6 | z6 | z6 | z6 | z6 | z6 | z6 | z6 | z6 | z3 Tb a b | c'2 b Pa2 g | %14
 f g a Pb a b | c'2 b Pa2 g | a3 z z2 | z6 | z6 | z6 | z6 | z6 | z6 | z6 | z3 f g a | b d' b Pg3 | %26
 f3 z z2 | z6 | z3 a b a | a d' a a g f | e3 z z2 | z6 | z6 | z6 | z3 ^c d e | f g a b ^c' d' | %36
 ^c' b a g f e | f g [da] [eg] [df] [^ce] | d3 z z2 | z6 | z6 | z6 | z3 a g f | e2 f g2 f | %44
 e3 z z2 | z6 | z6 | z6 | z6 | z3 [Aeg]3 | [df]3 z z2 | z3 [Aeg]3 | [Adf]3 [G^ce]3 | [FAd]3 z z2 | %54
 z6 | z6 :: z6 | z6 | z6 | z6 | z6 | z3 g f g | a2 g f2 e | f3 z z2 | z6 | z3 b3- | b a b c' b a | %67
 b3 z z2 | z6 | z3 f e f | g f e d ^c d | P^c3 z z2 | z6 | z3 ^a b ^c' | d' =c' b a g f | %75
 g3 g a b | ^c' b a g f e | f3 z z2 | z6 | z6 | z6 | z6 | z6 | z3 b a b | c'2 b Pa2 g | a3 z z2 | %86
 z6 | z3 d'3 | Pb a b d'3 |"^[    ]" Pb a b d' c' b | a2 g a g f | g3 z z2 | z6 | z6 | z6 | %95
 z3 !arpeggio![dfac']3 | [gb]3 z z2 | z3 !arpeggio![dfac']3 | [dgb]3 [cfa]3 | [Bdg]3 z z2 | z6 | %101
 z6 :| %102
V:6
 z6 | z6 | z6 | z6 | z6 | z6 | z6 | z6 | z6 | z6 | z6 | z6 | z3[K:treble] g f g | a f g c d e | %14
 d e f g f g | a f g c d e | d3 z z2 | z6 | z6 | z6 | z6 | z6 | z6 | z6 | z3 d e f | g3 e ^c A | %26
 d3 z z2 | z6 | z3 f g f | f3- f e d | A3 z z2 | z6 | z6 | z6 | z3 A B ^c | d e f g a b | %36
 a g f e d ^c | d2 F G2 A | D3 z z2 | z6 | z6 | z6 | z3 f e d | ^c A d e c d | A3 z z2 | z6 | z6 | %47
 z6 | z6 | z3[K:bass] A,3 | D3 z z2 | z3 A,3 | D3 A,3 | D3 z z2 | z6 | z6 :: z6 | z6 | z6 | z6 | %60
 z6 | z3[K:treble] e ^d e | f ^d e A B c | B3 z z2 | z6 | z3 B c ^d | e f g a g f | g3 z z2 | z6 | %69
 z3 d ^c d | e d ^c B ^A B | F3 z z2 | z6 | z3 f ^g ^a | b =a =g f e d | e3 e f g | a g f e d ^c | %77
 d3 z z2 | z6 | z6 | z6 | z6 | z6 | z3 g f g | a f g c d e | d3 z z2 | z6 | z3 d e f | g3 d e f | %89
 g3 B3 | c d e d3 | G3 z z2 | z6 | z6 | z6 | z3[K:bass] D3 | G3 z z2 | z3 D3 | G3 D3 | G3 z z2 | %100
 z6 | z6 :| %102

